X:1
T:B minor Elijah Griswold, 1793
T:Isaac Watts, 1719 (Psalm 148)  66. 86. (S. M.)
T:Venus
T:Transcribed from The American Compiler, 1803.
%%score [ 1 2 3 4 ]
L:1/8
Q:1/4=120
M:4/4
K:A
V:1 treble nm="Tr." snm="Tr."
V:2 treble nm="C." snm="C."
V:3 treble-8 nm="T." snm="T."
V:4 bass nm="B." snm="B."
V:1
 E8 | E2 A2 c2 A2 | e6 e2 | c2 B2 A2 B2 | c6 c2 | A2 A2 A2 c2 | B2 B2 BA G2 | A3 Bc>d e2 | e6 c2 | %9
w: |||||||||
w: |||||||||
w: |||||||||
 A2 B2 c2 B2 | c6 z2 |: z8 | z8 | z4 z2 A2 | e2 f2 e2 c2 | A2 A2 c2 e2 | B2 Bc B2 A2 | %17
w: ||||1.~Thou|sun with gol- den|beams, And moon with|pa- ler * rays, Ye|
w: ||||2.~Ye|va- pors, when ye|rise, Or falll in|showers of * snow; Ye|
w: ||||3.~Let|na- ture join with|art, And all pro-|nounce him * blest; But|
 e2 c2 A2 [Ff]2 | [Ee]6 [Ee]2 | A>B c>d e2 e2 | e2 c2 B2 A2 | ed cB A2 E2 | (A3 B c2) e2 |1 %23
w: star- ry lights, ye|twin- kling|flames, * shine * to your|Ma- ker's praise, Your|Ma- * ker's * praise, *||
w: thun- ders, mur- mering|round the|skies, * His * power and|glo- ry show, and|glo- * ry * show, *||
w: saints, that dwell so|near his|heart, * Should * sing his|prai- ses best, His|prai- * ses * best, *||
 f2 e2 c4- ||1 c6 z2 :|2 f2 e2 c4- || c8 |] %27
w: ||||
w: ||||
w: ||||
V:2
 E8 | E2 E2 A2 A2 | G6 G2 | F2 G2 A2 GF | E6 E2 | F2 F2 FE CD | E2 EF G2 G2 | A6 A2 | E6 E2 | %9
w: 1.~Let|eve- ry crea- ture|join To|praise th'E- ter- nal *|God; Ye|heav'n- ly hosts, * the *|song be- * gin, And|sound his|name, And|
w: 2.~He|built those worlds a-|bove, And|fixed their won- drous *|frame; By|his com- mand * they *|stand or * move, And|ev- er|speak, And|
w: 3.~U-|ni- ted zeal be|shown His|won- drous fame to *|raise: God|is the Lord, * his *|name a- * lone, His|name a-|lone De-|
 F2 F2 E2 E2 | E6 z2 |: z8 | z4 z2 C2 | E2 E2 E2 A2 | A2 A2 G2 E2 | A2 F2 E2 A2 | B2 G2 E2 CD | %17
w: sound his name a-|broad.||1.~Thou|sun with gol- den|beams, and moon with|pa- ler rays, and|moon with pa- ler *|
w: ev- er speak his|name.||2.~Ye|va- pors, when ye|rise, Or fall in|showers of snow, Or|fall in showers of *|
w: serves our end- less|praise.||3.~Let|na- ture join with|art, and all pro-|nounce him blest; And|all pro- nounce him *|
 E6 FG | AG FG E2 E2 | AG FG A2 A2 | AG FG E4- | E4 z2 E2 | (A3 G F2) E2 |1 A2 E2 E4- ||1 E6 z2 :|2 %25
w: rays, Ye *|star- * ry * lights, ye|twin- * kling * flames, ye|twin- * kling * flames,|* Shine|to~ _ _ your|Ma- ker's praise.||
w: snow, Ye *|thun- * ders, * mur- mering|round * the * skies, a-|round * the * skies,|* His|power~ _ _ and|glo- ry show.||
w: blest, But *|saints, * that * dwell so|near * his * heart, so|near * his * heart,|* Should|sing~ _ _ his|prai- ses best.||
 A2 E2 E4- || E8 |] %27
w: ||
w: ||
w: ||
V:3
 A8 | A2 c2 e2 dc | B6 A2 | c2 e2 c2 B2 | A6 A2 | c2 c2 c2 A2 | e2 e2 e2 fe | (e3 d c2) Bc | %8
w: ||||||||
w: ||||||||
w: ||||||||
 B6 A2 | dc Bd c2 E2 | A6 z2 |: z4 z2 A2 | c2 c2 e2 cA | B2 B2 B2 d2 | c2 c2 c2 cd | %15
w: |||1.~Thou|sun with gol- den *|beams, and moon with|pa- ler rays, Ye *|
w: |||2.~Ye|va- pors, when ye *|rise, Or fall in|showers of snow, Ye *|
w: |||3.~Let|na- ture join with *|art, And all pro-|nouce him blest; But *|
 e2 c2 A2 [Ff]2 | [Ee]6 E2 | A>B c>d e2 e2 | ed cB A2 A2 | ed cB A2 E2 | A2 A2 A2 F2 | A4 z2 A2 | %22
w: star- ry lights, ye|twin- kling|flames, * shine * to your|Ma- * ker's * praise, your|Ma- * ker's * praise, Shine|to your Ma- ker's|praise. *|
w: thun- ders, mur- mering|round the|skies, * his * power and|glo- * ry * show, and|glo- * ry * show, His|power and glo- ry|show. *|
w: saints, that dwell so|near his|heart, * should * sing his|prai- * ses * best, his|prai- * ses * best, Should|sing his prai- ses|best, *|
 (e3 d c2) BA |1 dc BG A4- ||1 A6 z2 :|2 dc BG A4- || A8 |] %27
w: |||||
w: |||||
w: |||||
V:4
 A,8 | A,2 A,2 A,2 D,2 | E,6 E,2 | F,2 E,2 A,2 E,2 | A,,6 C,2 | F,2 F,2 F,2 A,2 | E,2 E,2 E,2 C,2 | %7
w: |||||||
w: |||||||
w: |||||||
 A,,6 E,2 | E,6 E,2 | D,2 B,,2 C,D, E,2 | A,,6 E,2 |: A,2 A,2 A,2 A,2 | F,2 F,2 E,2 A,2 | %13
w: |||1.~–broad. Thou|sun with gol- den|beams, And moon with|
w: |||2.~name. Ye|va- pors, when ye|rise, Or fall in|
w: |||3.~praise. Let|na- ture join with|art, And all pro-|
 E,2 E,2 E,2 F,G, | A,2 F,2 E,2 C,2 | A,,6 A,,2 | E,F, E,D, E,2 E,2 | A,G, F,G, A,2 A,2 | %18
w: pa- ler rays, Ye *|star- ry lights, ye|twin- kling|flames, * shine * to your|Ma- * ker's * praise, your|
w: showers of snow; Ye *|thun- ders mur- mering|round the|skies, * His * power and|glo- * ry * show, His|
w: nounce him blest; But *|saints, that dwell so|near his|heart, * Should * sing his|prai- * ses * best, His|
 A,G, F,G, A,2 A,2 | [A,,A,]6 [A,,A,]2 | [A,,A,]6 [A,,A,]2 | [A,,A,]6 [A,,A,]2 | %22
w: Ma- * ker's * praise, Shine|to your|Ma- ker's|praise. *|
w: glo- * ry * show, His|power and|glo- ry|show. *|
w: prai- * ses * best, Should|sing his|prai- ses|best. *|
 (A,3 E, F,2) E,2 |1 D,2 E,2 A,,4- ||1 A,,6 E,2 :|2 D,2 E,2 A,,4- || A,,8 |] %27
w: ||* 1.~Thou|||
w: ||* 2.~Ye|||
w: ||* 3.~Let|||

